svg/book_refresh_outline.svg

<svg xmlns="http://www.w3.org/2000/svg" viewBox="0 0 24 24"><path d="M12.18 20c.18.72.47 1.39.86 2H6c-1.11 0-2-.89-2-2V4a2 2 0 0 1 2-2h12a2 2 0 0 1 2 2v8.18c-.5-.11-1-.18-1.5-.18-.17 0-.33 0-.5.03V4h-5v8l-2.5-2.25L8 12V4H6v16zM22 18.5v-4l-1.17 1.17A4 4 0 0 0 18 14.5c-2.21 0-4 1.79-4 4s1.79 4 4 4c1.68 0 3.12-1.03 3.71-2.5H20a2.5 2.5 0 1 1-.23-3.27L18 18.5z"/></svg>

<?xml version="1.0" encoding="UTF-8"?><!DOCTYPE svg PUBLIC "-//W3C//DTD SVG 1.1//EN" "http://www.w3.org/Graphics/SVG/1.1/DTD/svg11.dtd"><svg xmlns="http://www.w3.org/2000/svg" xmlns:xlink="http://www.w3.org/1999/xlink" version="1.1" id="mdi-book-refresh-outline" width="24" height="24" viewBox="0 0 24 24"><path d="M12.18 20C12.36 20.72 12.65 21.39 13.04 22H6C4.89 22 4 21.11 4 20V4C4 2.9 4.89 2 6 2H18C19.11 2 20 2.9 20 4V12.18C19.5 12.07 19 12 18.5 12C18.33 12 18.17 12 18 12.03V4H13V12L10.5 9.75L8 12V4H6V20H12.18M22 18.5V14.5L20.83 15.67C20.11 14.95 19.11 14.5 18 14.5C15.79 14.5 14 16.29 14 18.5S15.79 22.5 18 22.5C19.68 22.5 21.12 21.47 21.71 20H20C19.54 20.61 18.82 21 18 21C16.62 21 15.5 19.88 15.5 18.5S16.62 16 18 16C18.69 16 19.32 16.28 19.77 16.73L18 18.5H22Z" /></svg>
